icons/moon.svg

<svg width="24" height="24" viewBox="0 0 24 24" fill="none" xmlns="http://www.w3.org/2000/svg">
<path fill-rule="evenodd" clip-rule="evenodd" d="M10.8839 2.40382C11.1288 2.73367 11.1471 3.17981 10.93 3.5286C10.117 4.8343 9.78338 6.38671 9.98813 7.91569C10.1929 9.44462 10.9227 10.8515 12.0489 11.8924C13.175 12.9331 14.6261 13.5423 16.1498 13.6159C17.6735 13.6895 19.1755 13.2228 20.3947 12.2957C20.716 12.0513 21.1528 12.0241 21.502 12.2268C21.8511 12.4294 22.0442 12.8222 21.9914 13.2224C21.7524 15.0349 21.0296 16.7487 19.8991 18.1809C18.7685 19.6132 17.2726 20.7103 15.5703 21.3543C13.8679 21.9982 12.0236 22.1646 10.2344 21.8353C8.44524 21.5061 6.77914 20.6938 5.41358 19.486C4.04809 18.2783 3.03439 16.7205 2.47969 14.9793C1.92501 13.2381 1.84985 11.3781 2.26215 9.59738C2.67444 7.81665 3.55894 6.18122 4.8222 4.86586C6.08552 3.55045 7.6803 2.60448 9.43682 2.1298C9.47811 2.11864 9.51984 2.1102 9.56176 2.10445L9.8204 2.03462C10.2171 1.92753 10.6389 2.07396 10.8839 2.40382ZM8.23673 4.7486C7.50992 5.14212 6.84405 5.64798 6.26469 6.25122C5.25209 7.30559 4.54183 8.6179 4.2106 10.0485C3.87936 11.4791 3.93979 12.9736 4.38533 14.3722C4.83087 15.7708 5.64453 17.0203 6.7386 17.9879C7.83262 18.9556 9.16603 19.6052 10.5964 19.8684C12.0267 20.1316 13.5011 19.9987 14.8627 19.4836C16.2243 18.9686 17.4226 18.0904 18.3292 16.9418C18.7777 16.3735 19.1465 15.7496 19.4279 15.0879C18.3578 15.4872 17.2107 15.6694 16.0534 15.6136C14.0585 15.5173 12.1613 14.7197 10.6915 13.3611C9.22173 12.0028 8.27211 10.1697 8.00582 8.18115C7.85095 7.02467 7.9328 5.85749 8.23673 4.7486Z" fill="black"/>
</svg>

<svg
  width="24"
  height="24"
  viewBox="0 0 24 24"
  xmlns="http://www.w3.org/2000/svg"
>
  <path
    fill-rule="evenodd"
    clip-rule="evenodd"
    d="M10.884 2.404a1 1 0 0 1 .046 1.125 6.636 6.636 0 0 0 1.119 8.363 6.494 6.494 0 0 0 8.346.403 1 1 0 0 1 1.596.927 10.143 10.143 0 0 1-2.092 4.959 10.044 10.044 0 0 1-4.329 3.173 9.976 9.976 0 0 1-5.336.481 10.011 10.011 0 0 1-4.82-2.349 10.114 10.114 0 0 1-2.934-4.507 10.174 10.174 0 0 1-.218-5.382 10.128 10.128 0 0 1 2.56-4.731A10.025 10.025 0 0 1 9.437 2.13a1 1 0 0 1 .125-.026l.258-.07a1 1 0 0 1 1.064.37zM8.237 4.749c-.727.393-1.393.899-1.972 1.502A8.128 8.128 0 0 0 4.21 10.05a8.174 8.174 0 0 0 .174 4.323 8.113 8.113 0 0 0 2.354 3.616 8.011 8.011 0 0 0 3.857 1.88c1.43.264 2.905.13 4.267-.384a8.042 8.042 0 0 0 3.466-2.542 8.125 8.125 0 0 0 1.099-1.854 8.482 8.482 0 0 1-8.737-1.727 8.608 8.608 0 0 1-2.685-5.18 8.645 8.645 0 0 1 .23-3.432z"
  />
</svg>
